X:2206
T:Abraham Juan. "O quoi eh shoh ta ec my ghorrys?" 
C:Traditional
O:Isle of Man
Z:Clague collection
B:Kiaull Vannin #206 
L:1/8
M:6/8 
Q:160 
K:G 
A|A2d d2d|c2B (A A) A|A2d d2d|c3 A2A|Add d2d|c2B A2G| 
G2G G2G|B3 d2d|BBB G2G|B2B G2G|A2A AGF|G3 G2|| 

